X:1
T:Fuge c-Moll BWV 871
T:Fuge c-Moll BWV 871
T:Wohltemperiertes Klavier Teil II
T:Johann Sebastian Bach
C:Johann Sebastian Bach
%%score { ( 1 2 5 6 ) | ( 3 4 ) }
L:1/8
Q:1/4=84
M:4/4
K:Eb
V:1 treble nm="Piano" snm="Pno."
V:2 treble 
V:5 treble 
V:6 treble 
V:3 bass 
V:4 bass 
V:1
 x8 | z cBc dG cB/=A/ | B2 _A2 Gc F2- | FE/D/ GF E2 PD2 | CG c2- cB/c/ d/=e/f/g/ | %5
 a/f/c'/b/ a/g/f/e/ d/B/f/e/ d/c/B/A/ | G z z2 z4 | z z/ g/ e>f gc fe/d/ | eA _dc/B/ cF BA/G/ | %9
 A>A DE F E2 F- | FE A>A G>G c>_B- | B/B/A- A/G/A/B/ =E z/ A/ _d>c- | c/c/B- B/=A/B/c/ ^FG- G/GF/ | %13
 Ggef gc fe/d/ | e/d/c/=B/ c/e/f/g/ a/c/B/=A/ B/g/f/g/ | e z z2 z g=e^f | gc fe/d/ e>e d=e | %17
 fB _ed/c/ dG e2- | e/e/d- d/c=B/ cg de/f/ | ed z/ c_B/ =A>A G2- | G2 c4- c/=B/c/d/ | %21
 GA G>=A B=B z/ G/c/^F/ | GE D2 C z z c | =BcdG c_B/A/ Bc | ABcF BA/G/ AG- | %25
 G=A/B/4c/4 Fc =dc/=B/ c2 | %26
[Q:1/4=88] z/ d/[Q:1/4=87]"^.9"e/[Q:1/4=87]"^.6"=B/[Q:1/4=87]"^.3" c2-[Q:1/4=86][Q:1/4=86][Q:1/4=85][Q:1/4=84]"^.2" c2[Q:1/4=78] z[Q:1/4=68] B[Q:1/4=83][Q:1/4=81]"^.6"[Q:1/4=79]"^.9" | %27
 !arpeggio!c8 |] %28
V:2
 z GEF GC FE/D/ | E2 DC B,2 P=A,2 | G, G2 F2 E2 D/C/ | =B,2 C4 B,2 | C2 z E D/^F/G z2 | x4 z DB,D | %6
 E/C/A/G/ F/E/D/C/ =B,/F/E/D/ E/A/G/F/ | d/c/d- d/=B/c- c/B/c- c<B | c/G/A- A<G- G/=E/F- F<E | %9
 FC=B,C DG, CB,/=A,/ | G,/=B,/C- C/C/D- D/D/E- E/F/_G | =E z/ F/ _D2- D/C/F- F/G/A | %12
 ^F z/ G/ E2- E/DC/ B,=A, | G, z G2 E2 F2 | G2 C2 F2 ED | Ec_Bc dG cB/=A/ | %16
 B_A/G/ c/C/G- G/G/=A B/c/_d | z/ c/B/_A/ G=A BE _AG/F/ | G>F ED Ce A2 | %19
 z/ GF/ E=E z/ F/D z/ _E/F- | FE- E/=E/F/G/ A2 GF- | F/EF/- F/F/E z/ F/E/D/ E2 | %22
 z/ DC/- C/=A,/=B, CGEF | GC FE/D/ =EF GF/E/ | FG=EF GC FE/=D/ | =E_E_DE FE/=D/ EG | %26
 z2 z/"^.8" =A3/2- A2 x G | !arpeggio!G8 |] %28
V:3
 z8 | z8 | z8 | z G,E,F, G,C, F,E,/D,/ | E,/G,/C,/D,/ E,/F,/G,/=A,/ B,/D/G,/A,/ B,/C/D/=E/ | %5
 FA,F,A, B, z z2 | z C,=B,,C, D,G,, C,B,,/=A,,/ | =B,,G,,C,A,, E,,>A, D,G, | %8
 C,>F, B,,E, A,,>_D, G,,C, | F,,/C,/F,- F,/E,/D,/C,/ =B,,/G,,/C,/_B,,/ A,,/C,/D,, | %10
 E,,>C,, F,,_B,, =B,,C,A,,_B,, | C,F,, B,,A,,/G,,/ A,,A,/F,/ B,C | D,G, C,B,,/=A,,/ B,,E,C,D, | %13
 G,, z z2 z4 | z G,A,G, F,D G,=A,/=B,/ | C/D/E/F/ G/E/D/C/ B,/=A,/B,- B,/A,/D/C/ | %16
 B,/G,/C =A,=B, CF, _B,_A,/G,/ | =A,D- D/C/F/E/ D/C/_D- D/C/B,/_A,/ | B,=B,CD G,/C/B,/C/- C/B,/C- | %19
 C=B, C2- CB, C>B,- | B,/G,/C- C_B, A,/G/F/_E/ D2- | DCDC F, G,2 =A, | G,2 z z/ F,/ E, z z2 | %23
 z E=B,C G, z z2 | z _DG,A, =E,CA,B, | CF, B,_A,/G,/ A,G, G,[I:staff -1]E | %26
[I:staff +1] ^F,,2 z2 z/ =B,/C/^F,/ G,G,, | [C,,C,]8 |] %28
V:4
 x8 | x8 | x8 | x8 | x8 | x8 | x8 | x8 | x8 | x8 | x8 | x8 | x8 | x8 | x8 | x8 | x8 | x8 | %18
 z2 G,2 E,2 F,2 | G,2 C,2 F,2 _E,D, | E,>G, A,G, F,D G,=A,/=B,/ | CC,=B,,C, D,G,, C,=B,,/=A,,/ | %22
 =B,,C,F,,G,, C,, z z2 | z4 C, z z2 | z4 C, z z2 | z C,_D,C, =B,,F, E,/=D,/C,/D,/4E,/4 | x8 | x8 |] %28
V:5
 x8 | x8 | x8 | x8 | x8 | x8 | x8 | x8 | x8 | x8 | x8 | x8 | x8 | x8 | x8 | x8 | x8 | x8 | x8 | %19
 x8 | x8 | x8 | x8 | x8 | x8 | x8 | x2 x/ =A/"^.1"^F- F2 x =F | !arpeggio!E8 |] %28
V:6
 x8 | x8 | x8 | x8 | x8 | x8 | x8 | x8 | x8 | x8 | x8 | x8 | x8 | x8 | x8 | x8 | x8 | x8 | x8 | %19
 x8 | x8 | x8 | x8 | x8 | x8 | x8 | z2 z z/"^.3" D/ E2 x D | !arpeggio!C8 |] %28

